;generated by ffslicer 1.27.0 09/07/20 20:11:59
;layer_height: 0.2
;perimeter_shells: 2
;top_solid_layers: 4
;bottom_solid_layers: 3
;fill_density: 15%
;fill_pattern: hexagon
;base_print_speed: 50
;travel_speed: 80
;right_extruder_temperature: 200
;left_extruder_temperature: 0
;platform_temperature: 60
;right_extruder_temperature_raft0: 0
;left_extruder_temperature_raft0: 0
;right_extruder_temperature_reset: 
;left_extruder_temperature_reset: 
;start gcode
M140 S60 T0
M104 S200 T0
M104 S0 T1
G90
G28
M190 S60 T0
M109 S200 T0
M109 S0 T1
G92 E.0000
;layer_count: 110
M108 T0
G1 X144.63 Y131.95 F4800
;preExtrude:0.20
;preExtruder0
M106 S255
G1 Z.200 F420
G1 X144.63 Y131.95 F4800
G1 X144.36 Y132.45 E.0726 F1200
G1 X142.40 Y135.08 E.4915
G1 X140.08 Y137.40 E.9105
G1 X137.45 Y139.36 E1.3295
G1 X134.56 Y140.94 E1.7501
G1 X131.49 Y142.09 E2.1688
G1 X128.28 Y142.79 E2.5884
G1 X125.29 Y143.00 E2.9713
G1 X94.71 Y143.00 E6.8769
G1 X91.72 Y142.79 E7.2597
G1 X88.52 Y142.09 E7.6781
G1 X85.44 Y140.94 E8.0980
G1 X82.55 Y139.36 E8.5187
G1 X79.92 Y137.40 E8.9376
G1 X77.60 Y135.08 E9.3566
G1 X75.64 Y132.45 E9.7755
G1 X74.06 Y129.56 E10.1962
G1 X72.91 Y126.49 E10.6149
G1 X72.21 Y123.27 E11.0358
G1 X72.00 Y120.29 E11.4173
G1 X72.00 Y89.68 E15.3268
;raft
;layer:0.30
;shell
G1 E10.3268 F2700
G1 Z.300 F420
G1 X80.60 Y90.01 F4200
G1 E15.3268 F2700
G1 X80.60 Y90.01 F4200
G1 X80.66 Y89.31 E15.3605 F600
G1 X80.81 Y88.64 E15.3933
G1 X81.08 Y88.00 E15.4266
G1 X81.44 Y87.41 E15.4597
G1 X81.89 Y86.89 E15.4926
G1 X82.41 Y86.44 E15.5256
G1 X83.00 Y86.08 E15.5587
G1 X83.64 Y85.81 E15.5919
G1 X84.31 Y85.66 E15.6248
G1 X85.01 Y85.60 E15.6585
G1 X119.98 Y85.60 E17.3334
G1 X122.34 Y85.74 E17.4466
G1 X124.64 Y86.16 E17.5586
G1 X126.89 Y86.86 E17.6714
G1 X129.02 Y87.82 E17.7833
G1 X131.02 Y89.03 E17.8953
G1 X132.86 Y90.48 E18.0075
G1 X134.52 Y92.14 E18.1199
G1 X135.97 Y93.98 E18.2321
G1 X137.18 Y95.98 E18.3441
G1 X138.13 Y98.11 E18.4558
G1 X138.84 Y100.36 E18.5688
G1 X139.26 Y102.66 E18.6808
G1 X139.40 Y105.02 E18.7940
G1 X139.40 Y119.98 E19.5105
G1 X139.25 Y122.05 E19.6099
G1 X138.82 Y124.06 E19.7083
G1 X138.10 Y125.98 E19.8065
G1 X137.11 Y127.79 E19.9054
G1 X135.88 Y129.43 E20.0035
G1 X134.43 Y130.88 E20.1018
G1 X132.79 Y132.11 E20.1999
G1 X130.98 Y133.10 E20.2987
G1 X129.06 Y133.82 E20.3970
G1 X127.05 Y134.25 E20.4954
G1 X124.98 Y134.40 E20.5948
G1 X95.02 Y134.40 E22.0297
G1 X92.95 Y134.25 E22.1291
G1 X90.94 Y133.82 E22.2276
G1 X89.02 Y133.10 E22.3258
G1 X87.21 Y132.11 E22.4246
G1 X85.57 Y130.88 E22.5228
G1 X84.12 Y129.43 E22.6210
G1 X82.89 Y127.79 E22.7192
G1 X81.90 Y125.98 E22.8180
G1 X81.18 Y124.06 E22.9162
G1 X80.75 Y122.05 E23.0146
G1 X80.60 Y119.98 E23.1140
G1 X80.60 Y90.01 E24.5494
G1 X80.20 Y90.00 F4200
G1 X80.26 Y89.25 E24.5855 F600
G1 X80.43 Y88.52 E24.6214
G1 X80.73 Y87.82 E24.6579
G1 X81.12 Y87.18 E24.6937
G1 X81.61 Y86.61 E24.7297
G1 X82.18 Y86.12 E24.7657
G1 X82.82 Y85.73 E24.8016
G1 X83.52 Y85.43 E24.8381
G1 X84.25 Y85.26 E24.8740
G1 X85.00 Y85.20 E24.9101
G1 X119.99 Y85.20 E26.5859
G1 X122.39 Y85.34 E26.7010
G1 X124.74 Y85.78 E26.8155
G1 X127.02 Y86.49 E26.9299
G1 X129.20 Y87.47 E27.0444
G1 X131.25 Y88.71 E27.1591
G1 X133.13 Y90.18 E27.2734
G1 X134.82 Y91.87 E27.3879
G1 X136.29 Y93.75 E27.5022
G1 X137.53 Y95.80 E27.6169
G1 X138.51 Y97.98 E27.7314
G1 X139.22 Y100.26 E27.8458
G1 X139.66 Y102.61 E27.9603
G1 X139.80 Y105.01 E28.0754
G1 X139.80 Y120.00 E28.7934
G1 X139.65 Y122.10 E28.8942
G1 X139.20 Y124.17 E28.9957
G1 X138.46 Y126.14 E29.0965
G1 X137.45 Y128.00 E29.1978
G1 X136.18 Y129.69 E29.2991
G1 X134.69 Y131.18 E29.4000
G1 X133.00 Y132.45 E29.5013
G1 X131.14 Y133.46 E29.6026
G1 X129.17 Y134.20 E29.7034
G1 X127.10 Y134.65 E29.8049
G1 X125.00 Y134.80 E29.9057
G1 X95.00 Y134.80 E31.3425
G1 X92.90 Y134.65 E31.4434
G1 X90.83 Y134.20 E31.5448
G1 X88.86 Y133.46 E31.6456
G1 X87.00 Y132.45 E31.7470
G1 X85.31 Y131.18 E31.8482
G1 X83.82 Y129.69 E31.9492
G1 X82.55 Y128.00 E32.0504
G1 X81.54 Y126.14 E32.1518
G1 X80.80 Y124.17 E32.2526
G1 X80.35 Y122.10 E32.3540
G1 X80.20 Y120.00 E32.4549
G1 X80.20 Y90.00 E33.8917
G1 E28.8917 F2700
G1 X84.25 Y123.00 F4200
G1 E33.8917 F2700
G1 X84.25 Y123.00 F4200
G1 X100.37 Y132.31 E34.7833 F600
G1 X100.37 Y114.39 E35.6415
G1 X99.78 Y114.04 E35.6744
G1 X84.25 Y123.00 E36.5331
G1 E31.5331 F2700
G1 X100.06 Y131.77 F4200
G1 X100.06 Y131.77
G1 X123.20 Y119.74
G1 E36.5331 F2700
G1 X123.20 Y119.74 F4200
G1 X123.20 Y128.25 E36.9407 F600
G1 X123.27 Y128.70 E36.9625
G1 X123.50 Y129.15 E36.9867
G1 X123.85 Y129.50 E37.0104
G1 X124.31 Y129.73 E37.0351
G1 X124.75 Y129.80 E37.0564
G1 X133.25 Y129.80 E37.4635
G1 X133.70 Y129.73 E37.4853
G1 X134.15 Y129.50 E37.5095
G1 X134.50 Y129.15 E37.5332
G1 X134.73 Y128.70 E37.5574
G1 X134.80 Y128.25 E37.5792
G1 X134.80 Y119.75 E37.9863
G1 X134.73 Y119.31 E38.0077
G1 X134.50 Y118.85 E38.0323
G1 X134.15 Y118.50 E38.0560
G1 X133.70 Y118.27 E38.0802
G1 X133.25 Y118.20 E38.1020
G1 X124.74 Y118.20 E38.5096
G1 X124.30 Y118.27 E38.5310
G1 X123.86 Y118.50 E38.5547
G1 X123.50 Y118.85 E38.5788
G1 X123.27 Y119.30 E38.6030
G1 X123.20 Y119.74 E38.6243
G1 X123.60 Y119.77 F4200
G1 X123.60 Y128.22 E39.0290 F600
G1 X123.66 Y128.57 E39.0461
G1 X123.83 Y128.91 E39.0643
G1 X124.09 Y129.17 E39.0819
G1 X124.43 Y129.34 E39.1001
G1 X124.78 Y129.40 E39.1171
G1 X133.22 Y129.40 E39.5213
G1 X133.57 Y129.34 E39.5383
G1 X133.91 Y129.17 E39.5565
G1 X134.17 Y128.91 E39.5741
G1 X134.34 Y128.57 E39.5923
G1 X134.40 Y128.22 E39.6094
G1 X134.40 Y119.78 E40.0136
G1 X134.34 Y119.43 E40.0306
G1 X134.17 Y119.09 E40.0488
G1 X133.91 Y118.83 E40.0664
G1 X133.57 Y118.66 E40.0846
G1 X133.22 Y118.60 E40.1016
G1 X124.77 Y118.60 E40.5063
G1 X124.43 Y118.66 E40.5229
G1 X124.09 Y118.83 E40.5411
G1 X123.83 Y119.09 E40.5587
G1 X123.66 Y119.43 E40.5769
G1 X123.60 Y119.77 E40.5934
G1 E35.5934 F2700
G1 X100.06 Y131.77 F4200
G1 X85.05 Y123.00
G1 E40.5934 F2700
G1 X85.05 Y123.00 F4200
G1 X99.97 Y131.61 E41.4185 F600
G1 X99.97 Y114.62 E42.2322
G1 X99.77 Y114.50 E42.2434
G1 X85.05 Y123.00 E43.0575
;infill
G1 X84.19 Y123.35 F4200
G1 X94.88 Y134.05 E43.7819 F600
G1 X95.46 Y134.06 E43.8097
G1 X85.53 Y124.13 E44.4822
G1 X86.87 Y124.90 E44.5563
G1 X96.03 Y134.06 E45.1767
G1 X96.59 Y134.06 E45.2035
G1 X88.20 Y125.67 E45.7718
G1 X89.54 Y126.44 E45.8458
G1 X97.16 Y134.06 E46.3620
G1 X97.72 Y134.06 E46.3888
G1 X90.88 Y127.22 E46.8521
G1 X92.22 Y127.99 E46.9261
G1 X98.29 Y134.06 E47.3372
G1 X98.85 Y134.06 E47.3640
G1 X93.56 Y128.76 E47.7227
G1 X94.90 Y129.53 E47.7967
G1 X99.42 Y134.06 E48.1032
G1 X99.98 Y134.06 E48.1300
G1 X96.23 Y130.31 E48.3840
G1 X97.57 Y131.08 E48.4580
G1 X100.55 Y134.06 E48.6599
G1 X101.12 Y134.06 E48.6872
G1 X98.91 Y131.85 E48.8369
G1 X100.25 Y132.63 E48.9111
G1 X101.68 Y134.06 E49.0080
G1 X102.25 Y134.06 E49.0353
G1 X100.71 Y132.52 E49.1396
G1 X100.71 Y131.96 E49.1664
G1 X102.81 Y134.06 E49.3087
G1 X103.38 Y134.06 E49.3360
G1 X100.71 Y131.39 E49.5168
G1 X100.71 Y130.83 E49.5436
G1 X103.94 Y134.06 E49.7624
G1 X104.51 Y134.06 E49.7897
G1 X100.71 Y130.26 E50.0471
G1 X100.71 Y129.70 E50.0739
G1 X105.08 Y134.06 E50.3696
G1 X105.64 Y134.06 E50.3964
G1 X100.71 Y129.13 E50.7303
G1 X100.71 Y128.57 E50.7572
G1 X106.21 Y134.06 E51.1293
G1 X106.77 Y134.06 E51.1562
G1 X100.71 Y128.00 E51.5666
G1 X100.71 Y127.43 E51.5939
G1 X107.34 Y134.06 E52.0430
G1 X107.90 Y134.06 E52.0698
G1 X100.71 Y126.87 E52.5568
G1 X100.71 Y126.30 E52.5841
G1 X108.47 Y134.06 E53.1097
G1 X109.04 Y134.06 E53.1370
G1 X100.71 Y125.74 E53.7009
G1 X100.71 Y125.17 E53.7282
G1 X109.60 Y134.06 E54.3304
G1 X110.17 Y134.06 E54.3577
G1 X100.71 Y124.61 E54.9981
G1 X100.71 Y124.04 E55.0254
G1 X110.73 Y134.06 E55.7041
G1 X111.30 Y134.06 E55.7314
G1 X100.71 Y123.47 E56.4487
G1 X100.71 Y122.91 E56.4755
G1 X111.86 Y134.06 E57.2307
G1 X112.43 Y134.06 E57.2580
G1 X100.71 Y122.34 E58.0518
G1 X100.71 Y121.78 E58.0787
G1 X113.00 Y134.06 E58.9108
G1 X113.56 Y134.06 E58.9376
G1 X100.71 Y121.21 E59.8080
G1 X100.71 Y120.65 E59.8348
G1 X114.13 Y134.06 E60.7434
G1 X114.69 Y134.06 E60.7702
G1 X100.71 Y120.08 E61.7171
G1 X100.71 Y119.51 E61.7444
G1 X115.26 Y134.06 E62.7300
G1 X115.82 Y134.06 E62.7568
G1 X100.71 Y118.95 E63.7802
G1 X100.71 Y118.38 E63.8075
G1 X116.39 Y134.06 E64.8696
G1 X116.96 Y134.06 E64.8969
G1 X100.71 Y117.82 E65.9972
G1 X100.71 Y117.25 E66.0245
G1 X117.52 Y134.06 E67.1631
G1 X118.09 Y134.06 E67.1904
G1 X100.71 Y116.69 E68.3673
G1 X100.71 Y116.12 E68.3946
G1 X118.65 Y134.06 E69.6097
G1 X119.22 Y134.06 E69.6370
G1 X100.71 Y115.55 E70.8907
G1 X100.71 Y114.99 E70.9176
G1 X119.78 Y134.06 E72.2092
G1 X120.35 Y134.06 E72.2365
G1 X100.71 Y114.42 E73.5668
G1 E68.5668 F2700
G1 X100.06 Y131.77 F4200
G1 X84.35 Y129.17
G1 E73.5668 F2700
G1 X84.35 Y129.17 F4200
G1 X85.82 Y130.65 E73.6667 F600
G1 X87.39 Y131.82 E73.7605
G1 X87.77 Y132.02 E73.7811
G1 X82.97 Y127.23 E74.1059
G1 X82.29 Y125.98 E74.1740
G1 X89.02 Y132.71 E74.6299
G1 X89.17 Y132.79 E74.6380
G1 X89.96 Y133.09 E74.6785
G1 X81.91 Y125.04 E75.2237
G1 X81.57 Y124.13 E75.2702
G1 X90.86 Y133.42 E75.8995
G1 X91.04 Y133.49 E75.9087
G1 X91.62 Y133.61 E75.9371
G1 X81.38 Y123.38 E76.6304
G1 X81.23 Y122.65 E76.6660
G1 X92.34 Y133.77 E77.4189
G1 X93.05 Y133.92 E77.4537
G1 X81.08 Y121.94 E78.2648
G1 X81.04 Y121.33 E78.2940
G1 X93.66 Y133.96 E79.1492
G1 X94.27 Y134.00 E79.1785
G1 X80.99 Y120.72 E80.0780
G1 X80.95 Y120.11 E80.1072
G1 X83.77 Y122.94 E80.2986
G1 X83.77 Y122.88 E80.3015
G1 X84.10 Y122.70 E80.3195
G1 X80.94 Y119.54 E80.5335
G1 X80.94 Y118.97 E80.5608
G1 X84.46 Y122.49 E80.7992
G1 X84.81 Y122.28 E80.8188
G1 X80.94 Y118.41 E81.0809
G1 X80.94 Y117.84 E81.1082
G1 X85.17 Y122.07 E81.3947
G1 X85.53 Y121.87 E81.4144
G1 X80.94 Y117.28 E81.7253
G1 X80.94 Y116.71 E81.7526
G1 X85.89 Y121.66 E82.0879
G1 X86.25 Y121.45 E82.1079
G1 X80.94 Y116.15 E82.4672
G1 X80.94 Y115.58 E82.4945
G1 X86.61 Y121.25 E82.8785
G1 X86.97 Y121.04 E82.8985
G1 X80.94 Y115.01 E83.3069
G1 X80.94 Y114.45 E83.3337
G1 X87.32 Y120.83 E83.7659
G1 X87.68 Y120.63 E83.7856
G1 X80.94 Y113.88 E84.2425
G1 X80.94 Y113.32 E84.2693
G1 X88.04 Y120.42 E84.7502
G1 X88.40 Y120.21 E84.7702
G1 X80.94 Y112.75 E85.2754
G1 X80.94 Y112.19 E85.3023
G1 X88.76 Y120.00 E85.8316
G1 X89.12 Y119.80 E85.8513
G1 X80.94 Y111.62 E86.4054
G1 X80.94 Y111.05 E86.4327
G1 X89.48 Y119.59 E87.0111
G1 X89.83 Y119.38 E87.0307
G1 X80.94 Y110.49 E87.6328
G1 X80.94 Y109.92 E87.6601
G1 X90.19 Y119.18 E88.2870
G1 X90.55 Y118.97 E88.3069
G1 X80.94 Y109.36 E88.9578
G1 X80.94 Y108.79 E88.9851
G1 X90.91 Y118.76 E89.6604
G1 X91.27 Y118.55 E89.6804
G1 X80.94 Y108.23 E90.3797
G1 X80.94 Y107.66 E90.4070
G1 X91.63 Y118.35 E91.1311
G1 X91.99 Y118.14 E91.1511
G1 X80.94 Y107.09 E91.8995
G1 X80.94 Y106.53 E91.9263
G1 X92.35 Y117.93 E92.6988
G1 X92.70 Y117.73 E92.7182
G1 X80.94 Y105.96 E93.5150
G1 X80.94 Y105.40 E93.5419
G1 X93.06 Y117.52 E94.3628
G1 X93.42 Y117.31 E94.3827
G1 X80.94 Y104.83 E95.2281
G1 X80.94 Y104.27 E95.2549
G1 X93.78 Y117.11 E96.1246
G1 X94.14 Y116.90 E96.1445
G1 X80.94 Y103.70 E97.0386
G1 X80.94 Y103.13 E97.0659
G1 X94.50 Y116.69 E97.9844
G1 X94.86 Y116.48 E98.0043
G1 X80.94 Y102.57 E98.9468
G1 X80.94 Y102.00 E98.9741
G1 X95.21 Y116.28 E99.9410
G1 X95.57 Y116.07 E99.9610
G1 X80.94 Y101.44 E100.9519
G1 X80.94 Y100.87 E100.9792
G1 X95.93 Y115.86 E101.9945
G1 X96.29 Y115.66 E102.0143
G1 X80.94 Y100.31 E103.0540
G1 X80.94 Y99.74 E103.0813
G1 X96.65 Y115.45 E104.1454
G1 X97.01 Y115.24 E104.1653
G1 X80.94 Y99.17 E105.2538
G1 X80.94 Y98.61 E105.2806
G1 X97.37 Y115.03 E106.3931
G1 X97.72 Y114.83 E106.4124
G1 X80.94 Y98.04 E107.5493
G1 X80.94 Y97.48 E107.5761
G1 X98.08 Y114.62 E108.7371
G1 X98.44 Y114.41 E108.7571
G1 X80.94 Y96.91 E109.9424
G1 X80.94 Y96.35 E109.9692
G1 X98.80 Y114.21 E111.1789
G1 X99.16 Y114.00 E111.1989
G1 X80.94 Y95.78 E112.4330
G1 X80.94 Y95.21 E112.4603
G1 X99.52 Y113.79 E113.7188
G1 X99.72 Y113.68 E113.7297
G1 X99.83 Y113.68 E113.7350
G1 X100.15 Y113.86 E113.7525
G1 X80.94 Y94.65 E115.0537
G1 X80.94 Y94.08 E115.0810
G1 X120.92 Y134.06 E117.7890
G1 X121.48 Y134.06 E117.8158
G1 X80.94 Y93.52 E120.5617
G1 X80.94 Y92.95 E120.5890
G1 X122.05 Y134.06 E123.3735
G1 X122.61 Y134.06 E123.4003
G1 X80.94 Y92.39 E126.2228
G1 X80.94 Y91.82 E126.2501
G1 X123.18 Y134.06 E129.1111
G1 X123.74 Y134.06 E129.1379
G1 X80.94 Y91.25 E132.0372
G1 X80.94 Y90.69 E132.0641
G1 X124.31 Y134.06 E135.0017
G1 X124.88 Y134.06 E135.0290
G1 X80.94 Y90.12 E138.0052
G1 X80.97 Y89.59 E138.0306
G1 X125.41 Y134.03 E141.0406
G1 X125.94 Y133.99 E141.0661
G1 X81.05 Y89.11 E144.1063
G1 X81.17 Y88.66 E144.1286
G1 X126.46 Y133.95 E147.1962
G1 X126.99 Y133.91 E147.2217
G1 X81.34 Y88.26 E150.3137
G1 X81.54 Y87.90 E150.3334
G1 X127.46 Y133.81 E153.4434
G1 X127.92 Y133.71 E153.4660
G1 X124.28 Y130.07 E153.7125
G1 X124.72 Y130.14 E153.7338
G1 X124.92 Y130.14 E153.7434
G1 X128.39 Y133.61 E153.9785
G1 X128.85 Y133.51 E154.0010
G1 X125.48 Y130.14 E154.2293
G1 X126.05 Y130.14 E154.2566
G1 X129.28 Y133.37 E154.4753
G1 X129.69 Y133.22 E154.4963
G1 X126.61 Y130.14 E154.7049
G1 X127.18 Y130.14 E154.7322
G1 X130.10 Y133.06 E154.9300
G1 X130.51 Y132.91 E154.9509
G1 X127.74 Y130.14 E155.1385
G1 X128.31 Y130.14 E155.1658
G1 X130.91 Y132.74 E155.3419
G1 X131.28 Y132.54 E155.3620
G1 X128.88 Y130.14 E155.5246
G1 X129.44 Y130.14 E155.5514
G1 X131.64 Y132.34 E155.7004
G1 X132.01 Y132.14 E155.7206
G1 X130.01 Y130.14 E155.8561
G1 X130.57 Y130.14 E155.8829
G1 X132.38 Y131.94 E156.0051
G1 X132.73 Y131.73 E156.0247
G1 X131.14 Y130.14 E156.1324
G1 X131.70 Y130.14 E156.1592
G1 X133.05 Y131.49 E156.2507
G1 X133.37 Y131.24 E156.2701
G1 X132.27 Y130.14 E156.3446
G1 X132.83 Y130.14 E156.3715
G1 X133.70 Y131.00 E156.4300
G1 X134.02 Y130.76 E156.4492
G1 X133.38 Y130.12 E156.4925
G1 X133.86 Y130.03 E156.5159
G1 X134.33 Y130.50 E156.5478
G1 X134.61 Y130.22 E156.5667
G1 X134.23 Y129.84 E156.5925
G1 X134.35 Y129.78 E156.5989
G1 X134.54 Y129.58 E156.6121
G1 X134.89 Y129.94 E156.6361
G1 X135.18 Y129.65 E156.6558
G1 X134.81 Y129.29 E156.6805
G1 X135.00 Y128.91 E156.7008
G1 X135.46 Y129.37 E156.7320
G1 X135.72 Y129.07 E156.7510
G1 X135.11 Y128.46 E156.7923
G1 X135.14 Y128.28 E156.8011
G1 X135.14 Y127.92 E156.8183
G1 X135.97 Y128.75 E156.8745
G1 X136.21 Y128.42 E156.8941
G1 X135.14 Y127.35 E156.9665
G1 X135.14 Y126.79 E156.9934
G1 X136.45 Y128.10 E157.0821
G1 X136.69 Y127.77 E157.1016
G1 X135.14 Y126.22 E157.2066
G1 X135.14 Y125.66 E157.2335
G1 X136.91 Y127.43 E157.3534
G1 X137.11 Y127.06 E157.3735
G1 X135.14 Y125.09 E157.5069
G1 X135.14 Y124.52 E157.5342
G1 X137.31 Y126.70 E157.6815
G1 X137.51 Y126.33 E157.7017
G1 X135.14 Y123.96 E157.8622
G1 X135.14 Y123.39 E157.8895
G1 X137.71 Y125.97 E158.0639
G1 X137.88 Y125.57 E158.0847
G1 X135.14 Y122.83 E158.2703
G1 X135.14 Y122.26 E158.2976
G1 X138.04 Y125.16 E158.4940
G1 X138.19 Y124.75 E158.5149
G1 X135.14 Y121.70 E158.7215
G1 X135.14 Y121.13 E158.7488
G1 X138.35 Y124.34 E158.9663
G1 X138.50 Y123.92 E158.9876
G1 X135.14 Y120.56 E159.2152
G1 X135.14 Y120.00 E159.2420
G1 X138.60 Y123.46 E159.4764
G1 X138.70 Y122.99 E159.4994
G1 X135.08 Y119.38 E159.7443
G1 X135.06 Y119.20 E159.7529
G1 X134.78 Y118.65 E159.7825
G1 X134.35 Y118.22 E159.8116
G1 X133.80 Y117.94 E159.8412
G1 X133.62 Y117.91 E159.8499
G1 X101.65 Y85.94 E162.0154
G1 X102.21 Y85.94 E162.0422
G1 X138.80 Y122.53 E164.5205
G1 X138.90 Y122.06 E164.5436
G1 X102.78 Y85.94 E166.9901
G1 X103.34 Y85.94 E167.0169
G1 X138.95 Y121.54 E169.4285
G1 X138.98 Y121.01 E169.4540
G1 X103.91 Y85.94 E171.8294
G1 X104.47 Y85.94 E171.8562
G1 X139.02 Y120.49 E174.1964
G1 X139.06 Y119.96 E174.2218
G1 X105.04 Y85.94 E176.5261
G1 X105.61 Y85.94 E176.5534
G1 X139.06 Y119.39 E178.8191
G1 X139.06 Y118.83 E178.8459
G1 X106.17 Y85.94 E181.0737
G1 X106.74 Y85.94 E181.1010
G1 X139.06 Y118.26 E183.2901
G1 X139.06 Y117.70 E183.3169
G1 X107.30 Y85.94 E185.4681
G1 X107.87 Y85.94 E185.4954
G1 X139.06 Y117.13 E187.6080
G1 X139.06 Y116.56 E187.6353
G1 X108.43 Y85.94 E189.7096
G1 X109.00 Y85.94 E189.7369
G1 X139.06 Y116.00 E191.7730
G1 X139.06 Y115.43 E191.8003
G1 X109.57 Y85.94 E193.7978
G1 X110.13 Y85.94 E193.8246
G1 X139.06 Y114.87 E195.7841
G1 X139.06 Y114.30 E195.8114
G1 X110.70 Y85.94 E197.7323
