;generated by ffslicer 1.27.0 09/10/20 16:42:55
;layer_height: 0.2
;perimeter_shells: 2
;top_solid_layers: 4
;bottom_solid_layers: 3
;fill_density: 15%
;fill_pattern: hexagon
;base_print_speed: 50
;travel_speed: 80
;right_extruder_temperature: 200
;left_extruder_temperature: 0
;platform_temperature: 60
;right_extruder_temperature_raft0: 0
;left_extruder_temperature_raft0: 0
;right_extruder_temperature_reset: 
;left_extruder_temperature_reset: 
;start gcode
M140 S60 T0
M104 S200 T0
M104 S0 T1
G90
G28
M190 S60 T0
M109 S200 T0
M109 S0 T1
G92 E.0000
;layer_count: 90
M108 T0
G1 X136.53 Y91.57 F4800
;preExtrude:0.20
;preExtruder0
M106 S255
G1 Z.200 F420
G1 X136.53 Y91.57 F4800
G1 X138.74 Y96.48 E.6877 F1200
G1 X139.35 Y97.87 E.8816
G1 X139.90 Y99.29 E1.0761
G1 X142.75 Y106.83 E2.1056
G1 X143.75 Y109.54 E2.4745
G1 X142.90 Y112.81 E2.9060
G1 X139.88 Y120.76 E3.9922
G1 X139.33 Y122.18 E4.1867
G1 X138.71 Y123.57 E4.3810
G1 X135.41 Y130.89 E5.4066
G1 X134.21 Y133.54 E5.7781
G1 X131.27 Y135.25 E6.2125
G1 X123.51 Y138.74 E7.2992
G1 X122.12 Y139.36 E7.4936
G1 X120.71 Y139.90 E7.6864
G1 X113.19 Y142.74 E8.7131
G1 X110.48 Y143.76 E9.0829
G1 X107.19 Y142.90 E9.5172
G1 X99.24 Y139.88 E10.6034
G1 X97.82 Y139.33 E10.7979
G1 X96.43 Y138.71 E10.9923
G1 X89.11 Y135.41 E12.0178
G1 X86.46 Y134.21 E12.3893
G1 X84.75 Y131.27 E12.8237
G1 X81.26 Y123.51 E13.9104
G1 X80.64 Y122.12 E14.1048
G1 X80.10 Y120.71 E14.2977
G1 X77.25 Y113.18 E15.3260
;raft
;layer:0.30
;shell
G1 E10.3260 F2700
G1 Z.300 F420
G1 X85.23 Y110.00 F4200
G1 E15.3260 F2700
G1 X85.23 Y110.00 F4200
G1 X85.87 Y109.47 E15.3658 F600
G1 X86.23 Y109.08 E15.3912
G1 X86.52 Y108.64 E15.4164
G1 X86.75 Y108.18 E15.4410
G1 X86.92 Y107.68 E15.4663
G1 X87.01 Y107.18 E15.4907
G1 X87.20 Y105.93 E15.5512
G1 X87.46 Y104.67 E15.6128
G1 X87.77 Y103.50 E15.6708
G1 X88.17 Y102.28 E15.7323
G1 X88.61 Y101.14 E15.7908
G1 X89.13 Y99.96 E15.8526
G1 X89.69 Y98.88 E15.9109
G1 X90.33 Y97.77 E15.9722
G1 X91.02 Y96.73 E16.0320
G1 X91.77 Y95.71 E16.0926
G1 X92.05 Y95.30 E16.1164
G1 X92.28 Y94.83 E16.1415
G1 X92.44 Y94.34 E16.1662
G1 X92.54 Y93.82 E16.1915
G1 X92.57 Y93.29 E16.2170
G1 X92.49 Y92.49 E16.2555
G1 X93.31 Y92.57 E16.2949
G1 X93.84 Y92.54 E16.3203
G1 X94.35 Y92.44 E16.3452
G1 X94.85 Y92.27 E16.3705
G1 X95.32 Y92.04 E16.3956
G1 X95.74 Y91.75 E16.4200
G1 X96.78 Y90.98 E16.4820
G1 X97.80 Y90.32 E16.5402
G1 X98.91 Y89.67 E16.6018
G1 X100.02 Y89.10 E16.6616
G1 X101.15 Y88.60 E16.7208
G1 X102.34 Y88.15 E16.7817
G1 X103.52 Y87.77 E16.8411
G1 X104.72 Y87.45 E16.9005
G1 X105.95 Y87.20 E16.9607
G1 X107.21 Y87.01 E17.0217
G1 X107.70 Y86.92 E17.0456
G1 X108.20 Y86.74 E17.0710
G1 X108.67 Y86.51 E17.0961
G1 X109.10 Y86.21 E17.1212
G1 X109.48 Y85.86 E17.1459
G1 X110.00 Y85.23 E17.1850
G1 X110.53 Y85.87 E17.2248
G1 X110.92 Y86.23 E17.2503
G1 X111.36 Y86.52 E17.2755
G1 X111.82 Y86.75 E17.3001
G1 X112.32 Y86.92 E17.3254
G1 X112.82 Y87.01 E17.3498
G1 X114.08 Y87.20 E17.4108
G1 X115.33 Y87.46 E17.4719
G1 X116.50 Y87.77 E17.5299
G1 X117.72 Y88.17 E17.5914
G1 X118.87 Y88.61 E17.6504
G1 X120.04 Y89.13 E17.7117
G1 X121.12 Y89.69 E17.7700
G1 X122.23 Y90.33 E17.8313
G1 X123.27 Y91.02 E17.8911
G1 X124.29 Y91.77 E17.9517
G1 X124.70 Y92.05 E17.9755
G1 X125.17 Y92.28 E18.0006
G1 X125.67 Y92.44 E18.0257
G1 X126.18 Y92.54 E18.0506
G1 X126.71 Y92.57 E18.0760
G1 X127.52 Y92.49 E18.1150
G1 X127.43 Y93.31 E18.1545
G1 X127.46 Y93.84 E18.1800
G1 X127.56 Y94.35 E18.2048
G1 X127.73 Y94.85 E18.2301
G1 X127.96 Y95.32 E18.2552
G1 X128.24 Y95.74 E18.2794
G1 X129.01 Y96.77 E18.3410
G1 X129.69 Y97.81 E18.4005
G1 X130.32 Y98.90 E18.4608
G1 X130.90 Y100.02 E18.5212
G1 X131.40 Y101.16 E18.5808
G1 X131.85 Y102.33 E18.6408
G1 X132.23 Y103.52 E18.7007
G1 X132.55 Y104.72 E18.7602
G1 X132.80 Y105.95 E18.8203
G1 X132.99 Y107.21 E18.8813
G1 X133.08 Y107.70 E18.9052
G1 X133.26 Y108.20 E18.9306
G1 X133.49 Y108.67 E18.9557
G1 X133.79 Y109.10 E18.9808
G1 X134.14 Y109.48 E19.0055
G1 X134.77 Y110.00 E19.0447
G1 X134.12 Y110.53 E19.0848
G1 X133.78 Y110.92 E19.1096
G1 X133.48 Y111.36 E19.1351
G1 X133.25 Y111.81 E19.1593
G1 X133.08 Y112.32 E19.1851
G1 X132.99 Y112.82 E19.2094
G1 X132.80 Y114.07 E19.2700
G1 X132.54 Y115.32 E19.3311
G1 X132.23 Y116.50 E19.3895
G1 X131.84 Y117.71 E19.4504
G1 X131.39 Y118.87 E19.5100
G1 X130.87 Y120.04 E19.5713
G1 X130.31 Y121.13 E19.6300
G1 X129.68 Y122.22 E19.6903
G1 X128.98 Y123.27 E19.7508
G1 X128.23 Y124.29 E19.8114
G1 X127.95 Y124.70 E19.8352
G1 X127.72 Y125.17 E19.8602
G1 X127.56 Y125.67 E19.8854
G1 X127.46 Y126.18 E19.9103
G1 X127.43 Y126.71 E19.9357
G1 X127.51 Y127.52 E19.9747
G1 X126.69 Y127.43 E20.0142
G1 X126.16 Y127.46 E20.0396
G1 X125.65 Y127.56 E20.0645
G1 X125.15 Y127.73 E20.0898
G1 X124.68 Y127.96 E20.1149
G1 X124.26 Y128.25 E20.1393
G1 X123.23 Y129.01 E20.2006
G1 X122.19 Y129.69 E20.2601
G1 X121.11 Y130.32 E20.3200
G1 X119.98 Y130.90 E20.3808
G1 X118.84 Y131.41 E20.4407
G1 X117.67 Y131.85 E20.5005
G1 X116.48 Y132.23 E20.5604
G1 X115.28 Y132.55 E20.6198
G1 X114.05 Y132.80 E20.6800
G1 X112.79 Y132.99 E20.7410
G1 X112.30 Y133.08 E20.7648
G1 X111.80 Y133.26 E20.7903
G1 X111.33 Y133.49 E20.8154
G1 X110.90 Y133.79 E20.8405
G1 X110.52 Y134.14 E20.8652
G1 X110.00 Y134.77 E20.9043
G1 X109.47 Y134.12 E20.9445
G1 X109.08 Y133.78 E20.9693
G1 X108.64 Y133.48 E20.9948
G1 X108.18 Y133.25 E21.0194
G1 X107.68 Y133.08 E21.0447
G1 X107.18 Y132.99 E21.0690
G1 X105.92 Y132.80 E21.1301
G1 X104.68 Y132.54 E21.1908
G1 X103.49 Y132.22 E21.2498
G1 X102.29 Y131.84 E21.3101
G1 X101.12 Y131.39 E21.3701
G1 X99.96 Y130.87 E21.4310
G1 X98.87 Y130.31 E21.4897
G1 X97.78 Y129.67 E21.5502
G1 X96.74 Y128.99 E21.6097
G1 X95.71 Y128.23 E21.6710
G1 X95.30 Y127.95 E21.6948
G1 X94.83 Y127.72 E21.7199
G1 X94.34 Y127.56 E21.7446
G1 X93.82 Y127.46 E21.7699
G1 X93.29 Y127.43 E21.7954
G1 X92.49 Y127.51 E21.8339
G1 X92.57 Y126.69 E21.8733
G1 X92.54 Y126.16 E21.8987
G1 X92.44 Y125.65 E21.9236
G1 X92.27 Y125.15 E21.9489
G1 X92.04 Y124.68 E21.9740
G1 X91.75 Y124.26 E21.9984
G1 X90.98 Y123.22 E22.0604
G1 X90.32 Y122.20 E22.1186
G1 X89.67 Y121.09 E22.1802
G1 X89.10 Y119.98 E22.2400
G1 X88.60 Y118.85 E22.2992
G1 X88.14 Y117.65 E22.3607
G1 X87.76 Y116.47 E22.4201
G1 X87.45 Y115.28 E22.4790
G1 X87.20 Y114.04 E22.5396
G1 X87.01 Y112.78 E22.6006
G1 X86.92 Y112.30 E22.6240
G1 X86.74 Y111.80 E22.6494
G1 X86.51 Y111.33 E22.6745
G1 X86.21 Y110.90 E22.6996
G1 X85.86 Y110.52 E22.7243
G1 X85.23 Y110.00 E22.7635
G1 X84.84 Y110.05 F4200
G1 X84.89 Y109.81 E22.7752 F600
G1 X85.01 Y109.66 E22.7844
G1 X85.60 Y109.18 E22.8208
G1 X85.91 Y108.83 E22.8432
G1 X86.17 Y108.44 E22.8657
G1 X86.38 Y108.02 E22.8882
G1 X86.53 Y107.58 E22.9104
G1 X86.62 Y107.12 E22.9329
G1 X86.81 Y105.85 E22.9944
G1 X87.07 Y104.59 E23.0560
G1 X87.39 Y103.37 E23.1164
G1 X87.79 Y102.16 E23.1775
G1 X88.24 Y100.97 E23.2384
G1 X88.77 Y99.80 E23.2999
G1 X89.34 Y98.67 E23.3605
G1 X89.99 Y97.56 E23.4221
G1 X90.69 Y96.51 E23.4826
G1 X91.45 Y95.48 E23.5439
G1 X91.70 Y95.10 E23.5657
G1 X91.91 Y94.68 E23.5881
G1 X92.06 Y94.23 E23.6109
G1 X92.14 Y93.77 E23.6332
G1 X92.16 Y93.30 E23.6558
G1 X92.08 Y92.44 E23.6971
G1 X92.18 Y92.23 E23.7083
G1 X92.44 Y92.08 E23.7226
G1 X93.32 Y92.16 E23.7650
G1 X93.79 Y92.14 E23.7875
G1 X94.25 Y92.05 E23.8099
G1 X94.70 Y91.90 E23.8327
G1 X95.12 Y91.69 E23.8552
G1 X95.51 Y91.43 E23.8776
G1 X96.54 Y90.66 E23.9392
G1 X97.60 Y89.97 E23.9998
G1 X98.71 Y89.32 E24.0614
G1 X99.84 Y88.75 E24.1220
G1 X101.01 Y88.22 E24.1835
G1 X102.20 Y87.77 E24.2444
G1 X103.41 Y87.38 E24.3053
G1 X104.64 Y87.06 E24.3662
G1 X105.89 Y86.80 E24.4274
G1 X107.15 Y86.61 E24.4884
G1 X107.60 Y86.53 E24.5103
G1 X108.04 Y86.38 E24.5325
G1 X108.46 Y86.16 E24.5553
G1 X108.85 Y85.90 E24.5777
G1 X109.20 Y85.58 E24.6004
G1 X109.74 Y84.91 E24.6416
G1 X109.96 Y84.83 E24.6528
G1 X110.25 Y84.91 E24.6672
G1 X110.82 Y85.60 E24.7101
G1 X111.17 Y85.91 E24.7325
G1 X111.56 Y86.17 E24.7550
G1 X111.98 Y86.38 E24.7774
G1 X112.42 Y86.53 E24.7997
G1 X112.88 Y86.62 E24.8222
G1 X114.15 Y86.81 E24.8837
G1 X115.41 Y87.07 E24.9453
G1 X116.63 Y87.39 E25.0057
G1 X117.84 Y87.79 E25.0667
G1 X119.03 Y88.24 E25.1277
G1 X120.20 Y88.77 E25.1892
G1 X121.33 Y89.34 E25.2498
G1 X122.44 Y89.99 E25.3114
G1 X123.49 Y90.69 E25.3718
G1 X124.52 Y91.45 E25.4331
G1 X124.90 Y91.70 E25.4549
G1 X125.32 Y91.91 E25.4774
G1 X125.77 Y92.06 E25.5001
G1 X126.23 Y92.14 E25.5225
G1 X126.70 Y92.16 E25.5450
G1 X127.56 Y92.08 E25.5864
G1 X127.77 Y92.18 E25.5975
G1 X127.92 Y92.44 E25.6119
G1 X127.84 Y93.32 E25.6542
G1 X127.86 Y93.79 E25.6768
G1 X127.95 Y94.25 E25.6992
G1 X128.10 Y94.70 E25.7219
G1 X128.31 Y95.12 E25.7444
G1 X128.57 Y95.51 E25.7669
G1 X129.34 Y96.54 E25.8285
G1 X130.03 Y97.60 E25.8890
G1 X130.68 Y98.71 E25.9507
G1 X131.25 Y99.84 E26.0113
G1 X131.77 Y101.00 E26.0722
G1 X132.23 Y102.20 E26.1337
G1 X132.62 Y103.40 E26.1941
G1 X132.94 Y104.64 E26.2555
G1 X133.20 Y105.89 E26.3166
G1 X133.39 Y107.15 E26.3777
G1 X133.47 Y107.60 E26.3995
G1 X133.62 Y108.04 E26.4218
G1 X133.84 Y108.46 E26.4445
G1 X134.10 Y108.85 E26.4670
G1 X134.42 Y109.20 E26.4897
G1 X135.09 Y109.74 E26.5309
G1 X135.17 Y109.96 E26.5421
G1 X135.09 Y110.25 E26.5565
G1 X134.40 Y110.82 E26.5994
G1 X134.09 Y111.17 E26.6218
G1 X133.83 Y111.56 E26.6442
G1 X133.62 Y111.98 E26.6667
G1 X133.47 Y112.42 E26.6890
G1 X133.38 Y112.88 E26.7114
G1 X133.19 Y114.15 E26.7729
G1 X132.93 Y115.40 E26.8341
G1 X132.61 Y116.63 E26.8950
G1 X132.21 Y117.84 E26.9560
G1 X131.76 Y119.03 E27.0169
G1 X131.23 Y120.20 E27.0784
G1 X130.66 Y121.33 E27.1391
G1 X130.01 Y122.44 E27.2007
G1 X129.31 Y123.49 E27.2611
G1 X128.55 Y124.52 E27.3224
G1 X128.30 Y124.90 E27.3442
G1 X128.09 Y125.32 E27.3667
G1 X127.94 Y125.77 E27.3894
G1 X127.86 Y126.23 E27.4118
G1 X127.84 Y126.70 E27.4343
G1 X127.92 Y127.56 E27.4757
G1 X127.82 Y127.77 E27.4868
G1 X127.56 Y127.92 E27.5012
G1 X126.68 Y127.84 E27.5435
G1 X126.21 Y127.86 E27.5660
G1 X125.75 Y127.95 E27.5885
G1 X125.30 Y128.10 E27.6112
G1 X124.88 Y128.31 E27.6337
G1 X124.49 Y128.57 E27.6561
G1 X123.46 Y129.34 E27.7177
G1 X122.40 Y130.03 E27.7783
G1 X121.29 Y130.68 E27.8399
G1 X120.16 Y131.25 E27.9005
G1 X118.99 Y131.77 E27.9619
G1 X117.80 Y132.23 E28.0230
G1 X116.59 Y132.62 E28.0838
G1 X115.36 Y132.94 E28.1447
G1 X114.11 Y133.20 E28.2059
G1 X112.85 Y133.39 E28.2669
G1 X112.40 Y133.47 E28.2888
G1 X111.96 Y133.62 E28.3111
G1 X111.54 Y133.84 E28.3338
G1 X111.15 Y134.10 E28.3562
G1 X110.80 Y134.42 E28.3789
G1 X110.25 Y135.09 E28.4204
G1 X110.04 Y135.17 E28.4312
G1 X109.75 Y135.09 E28.4456
G1 X109.18 Y134.40 E28.4885
G1 X108.83 Y134.09 E28.5109
G1 X108.44 Y133.83 E28.5333
G1 X108.02 Y133.62 E28.5558
G1 X107.58 Y133.47 E28.5781
G1 X107.12 Y133.38 E28.6005
G1 X105.85 Y133.19 E28.6620
G1 X104.59 Y132.93 E28.7236
G1 X103.37 Y132.61 E28.7841
G1 X102.16 Y132.21 E28.8451
G1 X100.97 Y131.76 E28.9060
G1 X99.80 Y131.23 E28.9675
G1 X98.67 Y130.66 E29.0282
G1 X97.56 Y130.01 E29.0898
G1 X96.51 Y129.31 E29.1502
G1 X95.48 Y128.55 E29.2115
G1 X95.10 Y128.30 E29.2333
G1 X94.68 Y128.09 E29.2558
G1 X94.23 Y127.94 E29.2785
G1 X93.77 Y127.86 E29.3009
G1 X93.30 Y127.84 E29.3234
G1 X92.44 Y127.92 E29.3648
G1 X92.23 Y127.82 E29.3759
G1 X92.08 Y127.56 E29.3903
G1 X92.16 Y126.68 E29.4326
G1 X92.14 Y126.21 E29.4551
G1 X92.05 Y125.75 E29.4776
G1 X91.90 Y125.30 E29.5003
G1 X91.69 Y124.88 E29.5228
G1 X91.43 Y124.49 E29.5452
G1 X90.66 Y123.46 E29.6068
G1 X89.97 Y122.40 E29.6674
G1 X89.32 Y121.29 E29.7290
G1 X88.75 Y120.16 E29.7896
G1 X88.22 Y118.99 E29.8512
G1 X87.77 Y117.80 E29.9121
G1 X87.38 Y116.59 E29.9730
G1 X87.06 Y115.36 E30.0338
G1 X86.80 Y114.10 E30.0955
G1 X86.61 Y112.85 E30.1560
G1 X86.53 Y112.40 E30.1779
G1 X86.38 Y111.96 E30.2002
G1 X86.16 Y111.54 E30.2229
G1 X85.90 Y111.15 E30.2453
G1 X85.58 Y110.80 E30.2681
G1 X84.91 Y110.25 E30.3096
G1 X84.84 Y110.05 E30.3197
G1 E25.3197 F2700
G1 X89.77 Y114.44 F4200
G1 E30.3197 F2700
G1 X89.77 Y114.44 F4200
G1 X89.80 Y115.00 E30.3466 F600
G1 X89.91 Y115.52 E30.3720
G1 X90.28 Y116.75 E30.4335
G1 X90.73 Y117.93 E30.4940
G1 X91.25 Y119.09 E30.5549
G1 X91.84 Y120.22 E30.6160
G1 X92.49 Y121.30 E30.6763
G1 X93.22 Y122.35 E30.7376
G1 X93.99 Y123.35 E30.7980
G1 X94.84 Y124.30 E30.8591
G1 X95.73 Y125.19 E30.9194
G1 X96.69 Y126.04 E30.9808
G1 X97.69 Y126.82 E31.0415
G1 X98.73 Y127.53 E31.1018
G1 X99.82 Y128.18 E31.1626
G1 X100.94 Y128.77 E31.2233
G1 X102.11 Y129.29 E31.2846
G1 X103.29 Y129.73 E31.3449
G1 X104.51 Y130.10 E31.4060
G1 X105.02 Y130.21 E31.4309
G1 X105.57 Y130.23 E31.4573
G1 X106.11 Y130.19 E31.4832
G1 X106.64 Y130.06 E31.5094
G1 X107.14 Y129.87 E31.5350
G1 X107.61 Y129.60 E31.5610
G1 X108.05 Y129.27 E31.5873
G1 X108.43 Y128.88 E31.6134
G1 X108.75 Y128.44 E31.6394
G1 X109.01 Y127.96 E31.6656
G1 X109.19 Y127.46 E31.6910
G1 X109.31 Y126.92 E31.7175
G1 X109.34 Y126.41 E31.7420
G1 X109.34 Y119.48 E32.0739
G1 X109.31 Y118.79 E32.1070
G1 X109.20 Y118.13 E32.1390
G1 X109.03 Y117.45 E32.1726
G1 X108.80 Y116.82 E32.2047
G1 X108.49 Y116.19 E32.2383
G1 X108.13 Y115.61 E32.2710
G1 X107.72 Y115.07 E32.3035
G1 X107.25 Y114.57 E32.3364
G1 X106.43 Y113.86 E32.3883
G1 X106.14 Y113.57 E32.4080
G1 X105.41 Y112.73 E32.4613
G1 X104.92 Y112.27 E32.4935
G1 X104.36 Y111.85 E32.5270
G1 X103.78 Y111.50 E32.5594
G1 X103.17 Y111.20 E32.5920
G1 X102.52 Y110.96 E32.6252
G1 X101.85 Y110.79 E32.6583
G1 X101.18 Y110.69 E32.6907
G1 X100.52 Y110.66 E32.7224
G1 X93.59 Y110.66 E33.0543
G1 X93.05 Y110.70 E33.0802
G1 X92.52 Y110.81 E33.1061
G1 X92.02 Y111.00 E33.1318
G1 X91.54 Y111.26 E33.1579
G1 X91.10 Y111.59 E33.1842
G1 X90.72 Y111.97 E33.2100
G1 X90.39 Y112.40 E33.2359
G1 X90.12 Y112.87 E33.2619
G1 X89.93 Y113.39 E33.2884
G1 X89.81 Y113.90 E33.3135
G1 X89.77 Y114.44 E33.3394
G1 X90.17 Y114.45 F4200
G1 X90.19 Y114.94 E33.3629 F600
G1 X90.29 Y115.43 E33.3869
G1 X90.66 Y116.62 E33.4466
G1 X91.10 Y117.79 E33.5064
G1 X91.61 Y118.92 E33.5658
G1 X92.19 Y120.02 E33.6254
G1 X92.83 Y121.09 E33.6851
G1 X93.54 Y122.11 E33.7446
G1 X94.30 Y123.09 E33.8040
G1 X95.13 Y124.02 E33.8637
G1 X96.01 Y124.90 E33.9233
G1 X96.94 Y125.73 E33.9830
G1 X97.92 Y126.49 E34.0424
G1 X98.95 Y127.20 E34.1023
G1 X100.02 Y127.84 E34.1621
G1 X101.12 Y128.41 E34.2214
G1 X102.26 Y128.92 E34.2812
G1 X103.42 Y129.35 E34.3405
G1 X104.60 Y129.72 E34.3997
G1 X105.08 Y129.81 E34.4231
G1 X105.56 Y129.83 E34.4461
G1 X106.05 Y129.79 E34.4696
G1 X106.52 Y129.68 E34.4928
G1 X106.97 Y129.50 E34.5160
G1 X107.40 Y129.27 E34.5393
G1 X107.78 Y128.97 E34.5625
G1 X108.12 Y128.62 E34.5859
G1 X108.41 Y128.23 E34.6092
G1 X108.64 Y127.80 E34.6325
G1 X108.81 Y127.34 E34.6560
G1 X108.91 Y126.87 E34.6790
G1 X108.94 Y126.40 E34.7016
G1 X108.94 Y119.49 E35.0325
G1 X108.91 Y118.84 E35.0637
G1 X108.81 Y118.20 E35.0947
G1 X108.65 Y117.58 E35.1254
G1 X108.43 Y116.97 E35.1564
G1 X108.14 Y116.39 E35.1875
G1 X107.80 Y115.84 E35.2185
G1 X107.41 Y115.33 E35.2492
G1 X106.97 Y114.86 E35.2801
G1 X106.15 Y114.14 E35.3323
G1 X105.84 Y113.84 E35.3530
G1 X105.13 Y113.01 E35.4053
G1 X104.65 Y112.57 E35.4365
G1 X104.14 Y112.18 E35.4672
G1 X103.59 Y111.85 E35.4979
G1 X103.01 Y111.57 E35.5288
G1 X102.40 Y111.34 E35.5600
G1 X101.77 Y111.19 E35.5910
G1 X101.13 Y111.09 E35.6221
G1 X100.51 Y111.06 E35.6518
G1 X93.60 Y111.06 E35.9827
G1 X93.11 Y111.09 E36.0063
G1 X92.64 Y111.20 E36.0294
G1 X92.18 Y111.37 E36.0529
G1 X91.75 Y111.60 E36.0762
G1 X91.36 Y111.89 E36.0995
G1 X91.02 Y112.23 E36.1225
G1 X90.72 Y112.62 E36.1461
G1 X90.49 Y113.05 E36.1694
G1 X90.31 Y113.50 E36.1927
G1 X90.21 Y113.97 E36.2157
G1 X90.17 Y114.45 E36.2387
G1 E31.2387 F2700
G1 X89.76 Y105.56 F4200
G1 E36.2387 F2700
G1 X89.76 Y105.56 F4200
G1 X89.81 Y106.11 E36.2652 F600
G1 X89.94 Y106.64 E36.2913
G1 X90.13 Y107.14 E36.3169
G1 X90.40 Y107.62 E36.3433
G1 X90.73 Y108.05 E36.3693
G1 X91.12 Y108.43 E36.3954
G1 X91.56 Y108.75 E36.4214
G1 X92.03 Y109.01 E36.4471
G1 X92.54 Y109.19 E36.4730
G1 X93.08 Y109.31 E36.4995
G1 X93.78 Y109.34 E36.5331
G1 X100.52 Y109.34 E36.8559
G1 X101.21 Y109.31 E36.8890
G1 X101.87 Y109.20 E36.9210
G1 X102.55 Y109.03 E36.9546
G1 X103.18 Y108.80 E36.9867
G1 X103.81 Y108.49 E37.0203
G1 X104.39 Y108.13 E37.0530
G1 X104.93 Y107.72 E37.0855
G1 X105.43 Y107.25 E37.1184
G1 X106.14 Y106.43 E37.1703
G1 X106.43 Y106.14 E37.1900
