;generated by ffslicer 1.27.0 09/10/20 16:43:38
;layer_height: 0.2
;perimeter_shells: 2
;top_solid_layers: 4
;bottom_solid_layers: 3
;fill_density: 15%
;fill_pattern: hexagon
;base_print_speed: 50
;travel_speed: 80
;right_extruder_temperature: 200
;left_extruder_temperature: 0
;platform_temperature: 60
;right_extruder_temperature_raft0: 0
;left_extruder_temperature_raft0: 0
;right_extruder_temperature_reset: 
;left_extruder_temperature_reset: 
;start gcode
M140 S60 T0
M104 S200 T0
M104 S0 T1
G90
G28
M190 S60 T0
M109 S200 T0
M109 S0 T1
G92 E.0000
;layer_count: 30
M108 T0
G1 X150.86 Y123.76 F4800
;preExtrude:0.20
;preExtruder0
M106 S255
G1 Z.200 F420
G1 X150.86 Y123.76 F4800
G1 X150.85 Y134.23 E1.3372 F1200
G1 X150.78 Y135.42 E1.4895
G1 X150.59 Y136.76 E1.6623
G1 X150.23 Y138.14 E1.8445
G1 X149.76 Y139.42 E2.0186
G1 X149.14 Y140.68 E2.1980
G1 X148.43 Y141.86 E2.3739
G1 X147.57 Y142.97 E2.5532
G1 X146.63 Y143.97 E2.7285
G1 X145.57 Y144.89 E2.9078
G1 X144.45 Y145.70 E3.0843
G1 X143.23 Y146.38 E3.2627
G1 X141.96 Y146.95 E3.4405
G1 X140.65 Y147.37 E3.6162
G1 X139.30 Y147.68 E3.7931
G1 X137.97 Y147.82 E3.9639
G1 X137.16 Y147.85 E4.0674
G1 X88.81 Y147.85 E10.2426
G1 X87.59 Y147.79 E10.3986
G1 X86.20 Y147.58 E10.5782
G1 X84.89 Y147.24 E10.7510
G1 X83.56 Y146.75 E10.9320
G1 X82.34 Y146.16 E11.1051
G1 X81.13 Y145.41 E11.2869
G1 X80.03 Y144.58 E11.4629
G1 X79.02 Y143.62 E11.6409
G1 X78.11 Y142.58 E11.8174
G1 X77.30 Y141.43 E11.9971
G1 X76.62 Y140.25 E12.1710
G1 X76.06 Y138.96 E12.3506
G1 X75.62 Y137.65 E12.5271
G1 X75.33 Y136.29 E12.7047
G1 X75.17 Y135.00 E12.8707
G1 X75.14 Y134.13 E12.9819
G1 X75.14 Y115.77 E15.3268
;raft
;layer:0.30
;shell
G1 E10.3268 F2700
G1 Z.300 F420
G1 X83.75 Y116.02 F4200
G1 E15.3268 F2700
G1 X83.75 Y116.02 F4200
G1 X83.78 Y115.45 E15.3542 F600
G1 X83.85 Y114.95 E15.3784
G1 X83.99 Y114.43 E15.4041
G1 X84.16 Y113.96 E15.4281
G1 X84.40 Y113.46 E15.4546
G1 X84.67 Y113.02 E15.4794
G1 X85.00 Y112.59 E15.5053
G1 X85.35 Y112.22 E15.5297
G1 X85.75 Y111.87 E15.5552
G1 X86.17 Y111.57 E15.5799
G1 X86.64 Y111.31 E15.6056
G1 X87.12 Y111.10 E15.6307
G1 X87.62 Y110.93 E15.6560
G1 X88.13 Y110.82 E15.6810
G1 X88.67 Y110.76 E15.7070
G1 X89.03 Y110.75 E15.7243
G1 X98.64 Y110.74 E16.1845
G1 X100.24 Y110.75 E16.2612
G1 X100.59 Y110.80 E16.2781
G1 X100.94 Y110.92 E16.2958
G1 X101.24 Y111.11 E16.3128
G1 X101.50 Y111.35 E16.3298
G1 X101.71 Y111.65 E16.3473
G1 X101.85 Y111.98 E16.3645
G1 X101.94 Y112.52 E16.3907
G1 X101.94 Y113.78 E16.4511
G1 X101.88 Y114.15 E16.4690
G1 X101.75 Y114.49 E16.4864
G1 X101.56 Y114.80 E16.5039
G1 X101.31 Y115.05 E16.5208
G1 X101.01 Y115.25 E16.5381
G1 X100.67 Y115.39 E16.5557
G1 X100.32 Y115.46 E16.5728
G1 X99.94 Y115.45 E16.5910
G1 X99.12 Y115.32 E16.6307
G1 X98.37 Y115.26 E16.6668
G1 X97.61 Y115.27 E16.7032
G1 X96.86 Y115.32 E16.7392
G1 X96.10 Y115.44 E16.7760
G1 X95.38 Y115.61 E16.8115
G1 X94.64 Y115.85 E16.8487
G1 X93.95 Y116.14 E16.8846
G1 X93.26 Y116.49 E16.9216
G1 X92.62 Y116.87 E16.9573
G1 X92.00 Y117.32 E16.9940
G1 X91.43 Y117.80 E17.0297
G1 X90.88 Y118.35 E17.0669
G1 X90.39 Y118.91 E17.1025
G1 X89.93 Y119.54 E17.1399
G1 X89.54 Y120.16 E17.1750
G1 X89.18 Y120.86 E17.2127
G1 X88.89 Y121.54 E17.2481
G1 X88.65 Y122.27 E17.2849
G1 X88.46 Y123.00 E17.3210
G1 X88.34 Y123.76 E17.3579
G1 X88.27 Y124.49 E17.3930
G1 X88.26 Y125.27 E17.4304
G1 X88.31 Y126.02 E17.4664
G1 X88.42 Y126.77 E17.5027
G1 X88.58 Y127.50 E17.5385
G1 X88.81 Y128.25 E17.5760
G1 X89.08 Y128.93 E17.6111
G1 X89.43 Y129.63 E17.6486
G1 X89.80 Y130.26 E17.6836
G1 X90.23 Y130.88 E17.7197
G1 X90.72 Y131.48 E17.7568
G1 X91.26 Y132.03 E17.7937
G1 X91.81 Y132.53 E17.8293
G1 X92.44 Y133.00 E17.8669
G1 X93.05 Y133.40 E17.9019
G1 X93.74 Y133.76 E17.9392
G1 X94.42 Y134.07 E17.9750
G1 X95.15 Y134.32 E18.0119
G1 X95.86 Y134.51 E18.0471
G1 X96.64 Y134.65 E18.0851
G1 X97.36 Y134.73 E18.1198
G1 X98.14 Y134.74 E18.1571
G1 X98.88 Y134.70 E18.1926
G1 X99.66 Y134.60 E18.2303
G1 X100.38 Y134.45 E18.2655
G1 X101.12 Y134.23 E18.3025
G1 X101.82 Y133.97 E18.3382
G1 X102.52 Y133.63 E18.3755
G1 X103.17 Y133.26 E18.4113
G1 X103.80 Y132.83 E18.4479
G1 X104.38 Y132.36 E18.4836
G1 X104.95 Y131.83 E18.5209
G1 X105.45 Y131.28 E18.5565
G1 X105.97 Y130.60 E18.5975
G1 X109.00 Y126.28 E18.8502
G1 X117.41 Y114.27 E19.5524
G1 X118.40 Y112.86 E19.6350
G1 X118.72 Y112.48 E19.6588
G1 X119.11 Y112.09 E19.6852
G1 X119.49 Y111.78 E19.7087
G1 X120.10 Y111.39 E19.7433
G1 X120.58 Y111.16 E19.7688
G1 X121.06 Y110.98 E19.7934
G1 X121.59 Y110.85 E19.8195
G1 X122.09 Y110.77 E19.8438
G1 X122.63 Y110.75 E19.8697
G1 X135.42 Y110.74 E20.4822
G1 X137.17 Y110.75 E20.5660
G1 X137.72 Y110.80 E20.5925
G1 X138.22 Y110.89 E20.6168
G1 X138.73 Y111.04 E20.6423
G1 X139.22 Y111.24 E20.6676
G1 X139.69 Y111.49 E20.6931
G1 X140.11 Y111.77 E20.7173
G1 X140.53 Y112.11 E20.7432
G1 X140.89 Y112.48 E20.7679
G1 X141.24 Y112.90 E20.7941
G1 X141.52 Y113.32 E20.8183
G1 X141.77 Y113.79 E20.8438
G1 X141.97 Y114.28 E20.8691
G1 X142.11 Y114.80 E20.8949
G1 X142.21 Y115.30 E20.9193
G1 X142.25 Y115.83 E20.9448
G1 X142.26 Y117.58 E21.0286
G1 X142.25 Y133.98 E21.8141
G1 X142.22 Y134.55 E21.8414
G1 X142.15 Y135.05 E21.8656
G1 X142.01 Y135.57 E21.8914
G1 X141.84 Y136.04 E21.9153
G1 X141.60 Y136.54 E21.9419
G1 X141.33 Y136.98 E21.9666
G1 X141.00 Y137.41 E21.9926
G1 X140.65 Y137.77 E22.0166
G1 X140.25 Y138.13 E22.0424
G1 X139.83 Y138.43 E22.0671
G1 X139.36 Y138.69 E22.0928
G1 X138.88 Y138.90 E22.1179
G1 X138.38 Y139.07 E22.1432
G1 X137.87 Y139.18 E22.1682
G1 X137.33 Y139.24 E22.1942
G1 X136.97 Y139.25 E22.2115
G1 X89.01 Y139.25 E24.5085
G1 X88.48 Y139.23 E24.5339
G1 X87.94 Y139.14 E24.5601
G1 X87.45 Y139.02 E24.5843
G1 X86.93 Y138.83 E24.6108
G1 X86.47 Y138.61 E24.6352
G1 X86.02 Y138.32 E24.6609
G1 X85.60 Y138.01 E24.6859
G1 X85.22 Y137.64 E24.7113
G1 X84.88 Y137.26 E24.7357
G1 X84.56 Y136.80 E24.7625
G1 X84.31 Y136.37 E24.7864
G1 X84.09 Y135.87 E24.8125
G1 X83.94 Y135.40 E24.8361
G1 X83.82 Y134.86 E24.8626
G1 X83.76 Y134.34 E24.8877
G1 X83.75 Y133.98 E24.9050
G1 X83.75 Y116.02 E25.7651
G1 X83.35 Y116.01 F4200
G1 X83.38 Y115.41 E25.7939 F600
G1 X83.46 Y114.87 E25.8201
G1 X83.61 Y114.31 E25.8478
G1 X83.79 Y113.80 E25.8737
G1 X84.05 Y113.27 E25.9020
G1 X84.34 Y112.80 E25.9285
G1 X84.69 Y112.34 E25.9561
G1 X85.07 Y111.94 E25.9826
G1 X85.51 Y111.56 E26.0104
G1 X85.96 Y111.23 E26.0371
G1 X86.46 Y110.95 E26.0646
G1 X86.98 Y110.72 E26.0918
G1 X87.52 Y110.55 E26.1189
G1 X88.06 Y110.42 E26.1455
G1 X88.64 Y110.36 E26.1735
G1 X89.01 Y110.35 E26.1912
G1 X98.64 Y110.34 E26.6524
G1 X100.27 Y110.35 E26.7305
G1 X100.69 Y110.41 E26.7508
G1 X101.11 Y110.56 E26.7722
G1 X101.48 Y110.79 E26.7930
G1 X101.81 Y111.09 E26.8144
G1 X102.06 Y111.45 E26.8354
G1 X102.24 Y111.86 E26.8568
G1 X102.33 Y112.29 E26.8779
G1 X102.34 Y112.51 E26.8884
G1 X102.34 Y113.81 E26.9507
G1 X102.27 Y114.26 E26.9725
G1 X102.11 Y114.67 E26.9936
G1 X101.87 Y115.05 E27.0151
G1 X101.57 Y115.36 E27.0358
G1 X101.19 Y115.61 E27.0575
G1 X100.79 Y115.78 E27.0784
G1 X100.35 Y115.86 E27.0998
G1 X99.90 Y115.84 E27.1214
G1 X99.07 Y115.72 E27.1615
G1 X98.36 Y115.66 E27.1956
G1 X97.62 Y115.67 E27.2311
G1 X96.91 Y115.72 E27.2652
G1 X96.17 Y115.84 E27.3011
G1 X95.48 Y116.00 E27.3350
G1 X94.78 Y116.23 E27.3703
G1 X94.12 Y116.50 E27.4045
G1 X93.45 Y116.84 E27.4404
G1 X92.84 Y117.20 E27.4744
G1 X92.24 Y117.64 E27.5100
G1 X91.70 Y118.10 E27.5440
G1 X91.17 Y118.62 E27.5795
G1 X90.70 Y119.16 E27.6138
G1 X90.26 Y119.76 E27.6495
G1 X89.89 Y120.36 E27.6832
G1 X89.55 Y121.03 E27.7192
G1 X89.26 Y121.68 E27.7533
G1 X89.03 Y122.39 E27.7890
G1 X88.86 Y123.07 E27.8226
G1 X88.73 Y123.81 E27.8586
G1 X88.67 Y124.51 E27.8922
G1 X88.66 Y125.26 E27.9282
G1 X88.70 Y125.97 E27.9622
G1 X88.81 Y126.71 E27.9981
G1 X88.97 Y127.40 E28.0320
G1 X89.19 Y128.11 E28.0676
G1 X89.45 Y128.77 E28.1015
G1 X89.78 Y129.44 E28.1373
G1 X90.14 Y130.05 E28.1712
G1 X90.55 Y130.63 E28.2053
G1 X91.02 Y131.21 E28.2410
G1 X91.54 Y131.75 E28.2769
G1 X92.07 Y132.22 E28.3108
G1 X92.66 Y132.67 E28.3464
G1 X93.26 Y133.05 E28.3804
G1 X93.92 Y133.40 E28.4162
G1 X94.56 Y133.69 E28.4498
G1 X95.27 Y133.93 E28.4857
G1 X95.95 Y134.12 E28.5195
G1 X96.69 Y134.25 E28.5555
G1 X97.39 Y134.33 E28.5893
G1 X98.14 Y134.34 E28.6252
G1 X98.85 Y134.31 E28.6592
G1 X99.59 Y134.21 E28.6950
G1 X100.28 Y134.06 E28.7288
G1 X101.00 Y133.85 E28.7647
G1 X101.66 Y133.60 E28.7985
G1 X102.33 Y133.28 E28.8341
G1 X102.95 Y132.93 E28.8682
G1 X103.56 Y132.50 E28.9039
G1 X104.12 Y132.06 E28.9381
G1 X104.66 Y131.55 E28.9736
G1 X105.14 Y131.03 E29.0075
G1 X105.65 Y130.36 E29.0479
G1 X108.67 Y126.05 E29.2999
G1 X109.76 Y124.49 E29.3911
G1 X117.08 Y114.04 E30.0021
G1 X118.08 Y112.62 E30.0853
G1 X118.42 Y112.21 E30.1108
G1 X118.84 Y111.79 E30.1393
G1 X119.25 Y111.45 E30.1648
G1 X119.90 Y111.04 E30.2016
G1 X120.42 Y110.79 E30.2292
G1 X120.94 Y110.60 E30.2557
G1 X121.50 Y110.46 E30.2834
G1 X122.05 Y110.37 E30.3101
G1 X122.62 Y110.35 E30.3374
G1 X135.43 Y110.34 E30.9509
G1 X137.19 Y110.35 E31.0352
G1 X137.76 Y110.40 E31.0626
G1 X138.31 Y110.50 E31.0894
G1 X138.87 Y110.67 E31.1174
G1 X139.38 Y110.87 E31.1437
G1 X139.89 Y111.14 E31.1713
G1 X140.35 Y111.45 E31.1979
G1 X140.80 Y111.82 E31.2258
G1 X141.19 Y112.20 E31.2518
G1 X141.56 Y112.67 E31.2805
G1 X141.87 Y113.12 E31.3067
G1 X142.13 Y113.63 E31.3341
G1 X142.34 Y114.15 E31.3609
G1 X142.50 Y114.71 E31.3888
G1 X142.60 Y115.25 E31.4151
G1 X142.65 Y115.82 E31.4425
G1 X142.66 Y117.58 E31.5268
G1 X142.65 Y133.99 E32.3128
G1 X142.62 Y134.59 E32.3416
G1 X142.54 Y135.13 E32.3677
G1 X142.39 Y135.69 E32.3955
G1 X142.21 Y136.20 E32.4214
G1 X141.95 Y136.73 E32.4497
G1 X141.66 Y137.20 E32.4761
G1 X141.30 Y137.66 E32.5041
G1 X140.93 Y138.06 E32.5302
G1 X140.49 Y138.44 E32.5580
G1 X140.04 Y138.77 E32.5848
G1 X139.54 Y139.05 E32.6122
G1 X139.02 Y139.28 E32.6394
G1 X138.48 Y139.45 E32.6665
G1 X137.94 Y139.58 E32.6931
G1 X137.36 Y139.64 E32.7211
G1 X136.99 Y139.65 E32.7388
G1 X89.01 Y139.65 E35.0368
G1 X88.44 Y139.63 E35.0641
G1 X87.86 Y139.53 E35.0923
G1 X87.33 Y139.40 E35.1184
G1 X86.77 Y139.19 E35.1471
G1 X86.29 Y138.96 E35.1726
G1 X85.78 Y138.65 E35.2012
G1 X85.35 Y138.32 E35.2271
G1 X84.93 Y137.92 E35.2549
G1 X84.57 Y137.51 E35.2810
G1 X84.22 Y137.02 E35.3099
G1 X83.95 Y136.55 E35.3358
G1 X83.72 Y136.02 E35.3635
G1 X83.55 Y135.50 E35.3897
G1 X83.43 Y134.92 E35.4181
G1 X83.36 Y134.37 E35.4446
G1 X83.35 Y134.00 E35.4623
G1 X83.35 Y116.01 E36.3240
G1 E31.3240 F2700
G1 X89.28 Y128.85 F4200
G1 X89.61 Y129.53
G1 X89.98 Y130.16
G1 X90.39 Y130.75
G1 X90.87 Y131.34
G1 X91.41 Y131.88
G1 X91.95 Y132.37
G1 X92.55 Y132.82
G1 X93.16 Y133.22
G1 X93.83 Y133.57
G1 X94.50 Y133.87
G1 X95.21 Y134.12
G1 X95.91 Y134.30
G1 X96.66 Y134.44
G1 X97.38 Y134.52
G1 X98.14 Y134.53
G1 X98.86 Y134.50
G1 X99.62 Y134.39
G1 X100.33 Y134.25
G1 X101.06 Y134.03
G1 X101.74 Y133.77
G1 X114.79 Y128.00
G1 E36.3240 F2700
G1 X114.79 Y128.00 F4200
G1 X114.84 Y128.83 E36.3638 F600
G1 X114.99 Y129.65 E36.4037
G1 X115.24 Y130.43 E36.4429
G1 X115.59 Y131.19 E36.4830
G1 X116.03 Y131.90 E36.5230
G1 X116.55 Y132.55 E36.5629
G1 X117.15 Y133.12 E36.6025
G1 X117.81 Y133.63 E36.6425
G1 X118.53 Y134.04 E36.6822
G1 X119.29 Y134.36 E36.7217
G1 X120.10 Y134.59 E36.7620
G1 X120.90 Y134.72 E36.8008
G1 X121.52 Y134.75 E36.8305
G1 X131.22 Y134.74 E37.2951
G1 X132.03 Y134.67 E37.3341
G1 X132.85 Y134.49 E37.3743
G1 X133.63 Y134.21 E37.4139
G1 X134.37 Y133.85 E37.4534
G1 X135.07 Y133.38 E37.4937
G1 X135.70 Y132.84 E37.5335
G1 X136.26 Y132.23 E37.5731
G1 X136.74 Y131.55 E37.6130
G1 X137.13 Y130.82 E37.6527
G1 X137.43 Y130.05 E37.6922
G1 X137.63 Y129.24 E37.7322
G1 X137.73 Y128.42 E37.7718
G1 X137.75 Y128.01 E37.7914
G1 X137.74 Y122.32 E38.0639
G1 X137.73 Y121.58 E38.0994
G1 X137.63 Y120.76 E38.1390
G1 X137.43 Y119.95 E38.1789
G1 X137.13 Y119.18 E38.2185
G1 X136.74 Y118.45 E38.2581
G1 X136.26 Y117.77 E38.2980
G1 X135.70 Y117.16 E38.3377
G1 X135.07 Y116.62 E38.3774
G1 X134.37 Y116.15 E38.4178
G1 X133.63 Y115.79 E38.4572
G1 X132.85 Y115.51 E38.4969
G1 X132.03 Y115.33 E38.5371
G1 X131.22 Y115.26 E38.5760
G1 X125.73 Y115.25 E38.8390
G1 X125.10 Y115.28 E38.8692
G1 X124.30 Y115.41 E38.9080
G1 X123.49 Y115.64 E38.9483
G1 X122.73 Y115.96 E38.9878
G1 X122.01 Y116.37 E39.0275
G1 X121.35 Y116.88 E39.0674
G1 X120.75 Y117.46 E39.1074
G1 X120.23 Y118.11 E39.1473
G1 X117.20 Y122.44 E39.4004
G1 X116.00 Y124.15 E39.5005
G1 X115.59 Y124.80 E39.5373
G1 X115.24 Y125.57 E39.5778
G1 X114.99 Y126.35 E39.6170
G1 X114.84 Y127.17 E39.6569
G1 X114.79 Y128.00 E39.6968
G1 X115.19 Y128.00 F4200
G1 X115.24 Y128.78 E39.7342 F600
G1 X115.38 Y129.55 E39.7717
G1 X115.62 Y130.29 E39.8089
G1 X115.94 Y131.00 E39.8462
G1 X116.36 Y131.67 E39.8841
G1 X116.85 Y132.27 E39.9212
G1 X117.41 Y132.82 E39.9588
G1 X118.03 Y133.29 E39.9961
G1 X118.71 Y133.68 E40.0336
G1 X119.43 Y133.99 E40.0712
G1 X120.18 Y134.20 E40.1085
G1 X120.95 Y134.32 E40.1458
G1 X121.53 Y134.35 E40.1736
G1 X131.20 Y134.34 E40.6367
G1 X131.97 Y134.27 E40.6738
G1 X132.74 Y134.10 E40.7115
G1 X133.47 Y133.84 E40.7486
G1 X134.17 Y133.50 E40.7859
G1 X134.82 Y133.06 E40.8235
G1 X135.42 Y132.56 E40.8609
G1 X135.94 Y131.98 E40.8982
G1 X136.40 Y131.34 E40.9360
G1 X136.77 Y130.65 E40.9735
G1 X137.05 Y129.92 E41.0109
G1 X137.24 Y129.17 E41.0480
G1 X137.33 Y128.39 E41.0856
G1 X137.35 Y128.00 E41.1043
G1 X137.34 Y122.33 E41.3758
G1 X137.33 Y121.61 E41.4103
G1 X137.24 Y120.83 E41.4479
G1 X137.05 Y120.08 E41.4850
G1 X136.77 Y119.35 E41.5224
G1 X136.40 Y118.66 E41.5599
G1 X135.94 Y118.02 E41.5977
G1 X135.42 Y117.44 E41.6350
G1 X134.82 Y116.94 E41.6724
G1 X134.17 Y116.50 E41.7100
G1 X133.47 Y116.16 E41.7473
G1 X132.74 Y115.90 E41.7844
G1 X131.97 Y115.73 E41.8222
G1 X131.20 Y115.66 E41.8592
G1 X125.73 Y115.65 E42.1212
G1 X125.15 Y115.68 E42.1490
G1 X124.38 Y115.80 E42.1863
G1 X123.63 Y116.01 E42.2236
G1 X122.91 Y116.32 E42.2612
G1 X122.23 Y116.71 E42.2987
G1 X121.61 Y117.18 E42.3360
G1 X121.05 Y117.73 E42.3736
G1 X120.55 Y118.34 E42.4113
G1 X117.52 Y122.67 E42.6644
G1 X116.33 Y124.36 E42.7634
G1 X115.94 Y125.00 E42.7993
G1 X115.62 Y125.71 E42.8366
G1 X115.38 Y126.45 E42.8739
G1 X115.24 Y127.22 E42.9114
G1 X115.19 Y128.00 E42.9488
;infill
G1 E37.9488 F2700
G1 X115.05 Y128.80 F4200
G1 X115.67 Y131.97
G1 E42.9488 F2700
G1 X115.67 Y131.97 F4200
G1 X109.65 Y125.95 E43.3566 F600
G1 X109.88 Y125.61 E43.3762
G1 X115.01 Y130.74 E43.7237
G1 X114.92 Y130.55 E43.7338
G1 X114.71 Y129.87 E43.7679
G1 X110.11 Y125.28 E44.0791
G1 X110.35 Y124.95 E44.0986
G1 X114.55 Y129.15 E44.3831
G1 X114.50 Y128.87 E44.3967
G1 X114.48 Y128.51 E44.4140
G1 X110.58 Y124.61 E44.6782
G1 X110.81 Y124.28 E44.6974
G1 X114.45 Y127.92 E44.9440
G1 X114.48 Y127.39 E44.9694
G1 X111.05 Y123.95 E45.2021
G1 X111.28 Y123.62 E45.2213
G1 X114.55 Y126.88 E45.4425
G1 X114.64 Y126.41 E45.4654
G1 X111.51 Y123.28 E45.6774
G1 X111.74 Y122.95 E45.6967
G1 X114.76 Y125.96 E45.9009
G1 X114.89 Y125.53 E45.9224
G1 X111.98 Y122.62 E46.1195
G1 X112.21 Y122.29 E46.1388
G1 X115.06 Y125.14 E46.3318
G1 X115.24 Y124.75 E46.3524
G1 X112.44 Y121.95 E46.5420
G1 X112.68 Y121.62 E46.5616
G1 X115.45 Y124.39 E46.7492
G1 X115.66 Y124.04 E46.7688
G1 X112.91 Y121.29 E46.9550
G1 X113.14 Y120.95 E46.9747
G1 X115.89 Y123.70 E47.1609
G1 X116.12 Y123.37 E47.1802
G1 X113.38 Y120.62 E47.3661
G1 X113.61 Y120.29 E47.3854
G1 X116.36 Y123.04 E47.5717
G1 X116.59 Y122.71 E47.5909
G1 X113.84 Y119.96 E47.7772
G1 X114.07 Y119.62 E47.7969
G1 X116.82 Y122.37 E47.9831
G1 X117.06 Y122.04 E48.0027
G1 X114.31 Y119.29 E48.1889
G1 X114.54 Y118.96 E48.2082
G1 X117.29 Y121.71 E48.3945
G1 X117.52 Y121.37 E48.4141
G1 X114.77 Y118.63 E48.6001
G1 X115.01 Y118.29 E48.6200
G1 X117.76 Y121.04 E48.8063
G1 X117.99 Y120.71 E48.8255
G1 X115.24 Y117.96 E49.0118
G1 X115.47 Y117.63 E49.0311
G1 X118.22 Y120.38 E49.2173
G1 X118.45 Y120.04 E49.2370
G1 X115.70 Y117.29 E49.4232
G1 X115.94 Y116.96 E49.4428
G1 X118.69 Y119.71 E49.6291
G1 X118.92 Y119.38 E49.6483
G1 X116.17 Y116.63 E49.8346
G1 X116.40 Y116.30 E49.8538
G1 X119.15 Y119.05 E50.0401
G1 X119.39 Y118.71 E50.0600
G1 X116.64 Y115.96 E50.2463
G1 X116.87 Y115.63 E50.2656
G1 X119.62 Y118.38 E50.4518
G1 X119.85 Y118.05 E50.4711
G1 X117.10 Y115.30 E50.6574
